X: 14050
T: LISSA'S REEL
C: Bob McQuillen 12 Dec.'08
B: Bob's Note Book 14 #50
%R: reel
%D:2009
Z: 2020 John Chambers <jc:trillian.mit.edu>
N: The first strain lacks a repeat sign, but it should probably be repeated.
M: C
L: 1/8
K: G	% and D
GA \
| BdBG cedc | Bdge dBGB | cBAc BAGB | Adef d2dc |
| BdBG cedc | Bdge dBGD | EGDG EGce | dBAB G2 || [K:D]
|: FG \
| Adfa fded | BdAG FDFA | dfag fdBg | fafd e2dB |
| Adfa fded | Bdga g2dB | Adfa fdBg | fedc d2 :|
%%begintext align
%% Lissa Schneckenberger
%% is a wonderful fiddler. Originally from Massachusetts,
%% she now lives across the river in Brattleboro, Vermont,
%% which is pretty handy when Steve Zakon-Anderson gets her
%% to team up with an old piano player to play for the First
%% Saturday Dance in Peterborough. It's always great when
%% you're playing here, Lissa; Thanks for coming!
%%endtext

%%sep 1 1 500

%%sep 1 1 500

